!!!!SEGMENT: pl-wnifc--6730-n--001-015_sowinski-wojciech--chants-religieux-de-la-pologne-op-93-dieu-je-t-aime-o-mon-doux-sauveur.krn
!!!cenid: 18xx:4029
!!!COM: Sowiński, Wojciech
!!!COM-rismID: pe30008543
!!!CDT: ~1803-1880/03/05
!!!CNT:
!!!GTL: Chants religieux de la Pologne op. 93
!!!OTL: Dieu je t'aime/O mon doux sauveur
!!!OMV: 015
!!!PDT: 1830
!!!AGN:
!!!SMS-siglum: PL-Wnifc
!!!SMS-shelfmark: 6730/n
!!!SMS-shelfwork: 001-015 G
!!!SMS-variant:
!!!SMS-altvar:
!!!NIFC-rismSourceID: 1001138221
!!!NIFC-rismChildID: 1001138237
!!!NIFC-islandoraID: nifc:213350
!!!URL-pdf-islandora: https://repozytorium.nifc.pl/islandora/object/nifc%3A213350/datastream/PDF/view
!!!URL-scan: https://polish.musicsources.pl/pl/lokalizacje/galeria/druki-muzyczne/16913 @EN{Scan on Polish Music Sources Website} @PL{Skany w portalu Dziedzictwo Muzyki Polskiej w otwartym dostępie}
!!!IIIF:
!!!ONB-nifc: UWAGA: str. 56-60
!!!AIN: 1 calto 2 organ 2 soprn
!!!key: G
**kern	**kern	**dynam	**kern	**text	**dynam	**kern	**text	**dynam	**kern	**text	**dynam
*part5	*part4	*part4	*part3	*part3	*part3	*part2	*part2	*part2	*part1	*part1	*part1
*staff5	*staff4	*	*staff3	*staff3	*	*staff2	*staff2	*	*staff1	*staff1	*
*I"Organo	*I"ORGUE.	*	*I"CONTRALTO.	*	*	*I"2o. DESSUS.	*	*	*I"1er. DESSUS.	*	*
*	*I'org	*	*I'CA	*	*	*I'2 D	*	*	*I'1 D	*	*
*Iorgan	*Iorgan	*	*Icalto	*	*	*Isoprn	*	*	*Isoprn	*	*
*ICklav	*ICklav	*	*ICvox	*	*	*ICvox	*	*	*ICvox	*	*
*clefF4	*clefG2	*	*clefG2	*	*	*clefG2	*	*	*clefG2	*	*
*k[f#]	*k[f#]	*	*k[f#]	*	*	*k[f#]	*	*	*k[f#]	*	*
*G:	*G:	*	*G:	*	*	*G:	*	*	*G:	*	*
*M4/4	*M4/4	*	*M4/4	*	*	*M4/4	*	*	*M4/4	*	*
*met(c)	*met(c)	*	*met(c)	*	*	*met(c)	*	*	*met(c)	*	*
=1	=1	=1	=1	=1	=1	=1	=1	=1	=1	=1	=1
!	!LO:TX:a:t=Andante espressivo.	!LO:DY:a	!	!	!	!	!	!	!LO:TX:a:t=Andante espressivo	!	!
(<4GG/ 4G	(4d/ 4g 4b	p	1r	.	.	1r	.	.	1r	.	.
*	*	*above	*	*	*	*	*	*	*	*	*
8F#\L	4d/ 4a 4cc	<	.	.	.	.	.	.	.	.	.
8D\J	.	.	.	.	.	.	.	.	.	.	.
!	!	!LO:DY:a	!	!	!	!	!	!	!	!	!
8GG/L	8d/L 8b 8dd	[ >	.	.	.	.	.	.	.	.	.
8D/J	8d/J 8a 8cc	.	.	.	.	.	.	.	.	.	.
4GG/) 4G	4d/) 4g 4b	]	.	.	.	.	.	.	.	.	.
=2	=2	=2	=2	=2	=2	=2	=2	=2	=2	=2	=2
8D/L	4d/ 4f# 4a	.	1r	.	.	1r	.	.	1r	.	.
8C/J	.	.	.	.	.	.	.	.	.	.	.
4BB/	8d/L 8g 8b	.	.	.	.	.	.	.	.	.	.
.	16a/L	.	.	.	.	.	.	.	.	.	.
.	16b/JJ	.	.	.	.	.	.	.	.	.	.
8AA/L	8d/L 8f# 8cc	.	.	.	.	.	.	.	.	.	.
8GG/J	8d/J 8g 8b	.	.	.	.	.	.	.	.	.	.
4DD/ 4D	4f#/ 4a	.	.	.	.	.	.	.	.	.	.
=3	=3	=3	=3	=3	=3	=3	=3	=3	=3	=3	=3
*	*	*below	*	*	*	*	*	*	*	*	*
!	!	!LO:HP:t=crese.	!	!	!	!	!	!	!	!	!
4EE/ 4E	2e/ 2g	<	1r	.	.	1r	.	.	1r	.	.
4DD/ 4D	.	.	.	.	.	.	.	.	.	.	.
4CC/ 4C	4e/ 4a	.	.	.	.	.	.	.	.	.	.
(<8BB/L	8e/L 8b	.	.	.	.	.	.	.	.	.	.
8AA/J	8e/J 8cc	.	.	.	.	.	.	.	.	.	.
=4	=4	=4	=4	=4	=4	=4	=4	=4	=4	=4	=4
*	*^	*	*	*	*	*	*	*	*	*	*
4.D\)	4.f#/ 4.a	4.c\	>	1r	.	.	1r	.	.	1r	.	.
!	!	!	!	!LO:LB:g=original	!	!	!LO:LB:g=original	!	!	!LO:LB:g=original	!	!
8GG\ 8G	8g/	8B\	.	.	.	.	.	.	.	.	.	.
2GG\ 2G	2g/	2B\	]	.	.	.	.	.	.	.	.	.
!LO:LB:g=original	!LO:LB:g=original	!LO:LB:g=original	!	!	!	!	!	!	!	!	!	!
*	*v	*v	*	*	*	*	*	*	*	*	*	*
=5	=5	=5	=5	=5	=5	=5	=5	=5	=5	=5	=5
!	!	!	!	!	!LO:DY:a	!	!	!LO:DY:a	!LO:TX:a:t=REFRAIN.	!	!LO:DY:a
2.GG/ 2.G	(4g/ 4b	p	4g/	O	p	4g/	O	p	4b\	O	p
.	4a/ 4cc	.	4g/	mon	.	4a/	mon	.	4cc\	mon	.
.	8b/L 8dd	.	8g/	doux	.	8b/	doux	.	8dd\	doux	.
.	8a/J) 8cc	.	8g/	Sau-	.	8a/	Sau-	.	8cc\	Sau-	.
4GG;</ 4G	4g;</ 4b	.	4g;/	-veur	.	4g;/	-veur	.	4b;\	-veur	.
=6	=6	=6	=6	=6	=6	=6	=6	=6	=6	=6	=6
*	*^	*	*	*	*	*	*	*	*	*	*
2GG/ 2G	4g/ 4b	2d/	.	4g/	O	.	4g/	O	.	4b\	O	.
.	4a/ 4cc	.	.	4d/	mon	.	4a/	mon	.	4cc\	mon	.
!	!	!	!	!	!	!	!	!	!	!LO:TX:a:t=rinf.	!	!
4GG/ 4G	8b/L 8dd	2ryy	.	8B/	bien	.	8b/	bien	.	8dd\	bien	.
!	!	!	!	!LO:TX:a:t=rinf.	!	!	!LO:TX:a:t=rinf.	!	!	!	!	!
.	8a/J 8cc	.	.	8d/	su-	.	8a/	su-	.	8cc\	su-	.
4GG;/ 4G	4d;/ 4g 4b	.	.	8g/	-prê-	.	8g/	-prê-	.	8b\	-prê-	.
.	.	.	.	8g/	-me	.	8g;/	-me	.	8b;\	-me	.
=7	=7	=7	=7	=7	=7	=7	=7	=7	=7	=7	=7	=7
!	!	!	!	!	!	!LO:DY:a	!	!	!LO:DY:a	!	!	!LO:DY:a
4BB/ 4G	4dd/	2g\	<	4B/	A	<	4g/	A	<	4dd\	A	<
4C/ 4G	4ee/	.	.	4c/	vous	.	4g/	vous	.	4ee\	vous	.
(4DD/ 4D	4b/ 4dd	2ryy	[	4d/	mon	.	4b/	mon	.	4dd\	mon	.
!	!	!	!	!	!	!	!	!	!LO:DY:a	!	!	!
8E\L	4a/ 4cc	.	.	4f#/	coeur	[[	4a/	coeur	[ >	4cc\	coeur	[[
8F#\J)	.	.	.	.	.	.	.	.	.	.	.	.
*	*v	*v	*	*	*	*	*	*	*	*	*	*
=8	=8	=8	=8	=8	=8	=8	=8	=8	=8	=8	=8
!	!	!	!	!	!LO:DY:a	!	!	!	!	!	!
4GG/ 4G	4g/ 4b	.	4g/	tout	>	4g/	tout	.	4b\	tout	.
(>8C/L	8a/L 8cc	>	(8c/L	mon	.	(8a/L	mon	.	(8cc\L	mon	.
8C#X/J	8g/J 8b	.	8d/J)	.	.	8g/J)	.	]	8b\J)	.	.
8D/L	2f#/ 2a	]	2d/	coeur	]	2f#/	coeur	.	2a/	coeur	.
!	!LO:LB:g=original	!	!LO:LB:g=original	!	!	!LO:LB:g=original	!	!	!LO:LB:g=original	!	!
8Cn/	.	.	.	.	.	.	.	.	.	.	.
8BB/	.	.	.	.	.	.	.	.	.	.	.
8AA/J)	.	.	.	.	.	.	.	.	.	.	.
!LO:LB:g=original	!	!	!	!	!	!	!	!	!	!	!
=9	=9	=9	=9	=9	=9	=9	=9	=9	=9	=9	=9
!	!	!	!	!	!	!	!	!LO:DY:a	!	!	!LO:DY:a
4GG\ 4G	4g/ 4b	.	4g/	Mes	.	4g/	Mes	f	4b\	Mes	f
4C\ 4G	4e/ 4g 4cc	.	4e/	chants	.	4g/	chants	.	4cc\	chants	.
4BB\ 4G	4d/ 4g 4dd	.	4d/	tout	.	4g/	tout	.	4dd\	tout	.
8GG\L 8G	8B/L 8g	.	(>8B/L	moi	.	(>8d/L	moi	.	(>8g/L	moi	.
8E\J	8c/J 8a	.	8c/J)	.	.	8e/J)	.	.	8a/J)	.	.
=10	=10	=10	=10	=10	=10	=10	=10	=10	=10	=10	=10
2DD/ 2D	4d/ 4b	.	(>4d/	mê-	.	(>4d/	mê-	.	(4b\	mê-	.
.	4c/ 4a	p	4c/)	.	.	4f#/)	.	.	4a/)	.	.
!	!	!	!	!	!	!	!	!	!	!	!LO:DY:a
2GG\ 2G	2B/ 2g	.	2B/	-me	.	2g/	-me	.	2g/	-me	p
=11||	=11||	=11||	=11||	=11||	=11||	=11||	=11||	=11||	=11||	=11||	=11||
!	!	!	!	!	!	!	!	!	!LO:TX:a:t=1re. STROPHE.	!	!
2GG\ 2G	(4g\ 4b 4dd	.	4g/	Ta-	.	4b\	Ta-	.	4dd\	Ta-	.
.	4g\ 4cc 4ee	.	4g/	-ber-	.	4cc\	-ber-	.	4ee\	-ber-	.
2GG\ 2G	8g\L 8b 8dd	.	4g/	-na-	.	8b/L	-na-	.	8dd\L	-na-	.
.	8a\ 8cc	.	.	.	.	8a/J	.	.	8cc\J	.	.
.	8g\ 8b	.	8g/	-cle	.	8g/	-cle	.	8b\	-cle	.
.	8a\J) 8cc	.	8g/	mys-	.	8a/	mys-	.	8cc\	mys-	.
=12	=12	=12	=12	=12	=12	=12	=12	=12	=12	=12	=12
2GG\ 2G	(8.b\L 8.dd	.	4g/	-té-	.	(8.b/L	-té-	.	(8.dd\L	-té-	.
.	16a\Jk 16cc	.	.	.	.	16a/Jk)	.	.	16cc\Jk)	.	.
.	4g\) 4b	.	4g/	-ri-	.	4g/	-ri-	.	4b\	-ri-	.
8GG;\ 8D 8F#	8d/ 8a	.	8d;/	-eux	.	8f#;/	-eux	.	8a;\	-eux	.
8ryy	8ryy	.	8ryy	.	.	8ryy	.	.	8ryy	.	.
4r	4r	.	4r	.	.	4r	.	.	4r	.	.
!LO:LB:g=original	!LO:LB:g=original	!	!LO:LB:g=original	!	!	!LO:LB:g=original	!	!	!LO:LB:g=original	!	!
=13	=13	=13	=13	=13	=13	=13	=13	=13	=13	=13	=13
2GG\ 2G	4g\ 4b 4dd	<	4g/	ou	.	4b/	ou	.	4dd\	ou	.
.	4g\ 4cc 4ee	.	4c/	mon	.	4g/	mon	.	4ee\	mon	.
2GG\ 2G	8g\L 8b 8dd	[	4g/	doux	.	(8b/L	doux	.	(8dd\L	doux	.
.	8a\ 8cc	.	.	.	.	8a/J)	.	.	8cc\J)	.	.
.	8g\ 8b	.	4g/	mai-	.	(8g/L	mai-	.	(8b\L	mai-	.
.	8a\J 8cc	.	.	.	.	8a/J)	.	.	8cc\J)	.	.
=14	=14	=14	=14	=14	=14	=14	=14	=14	=14	=14	=14
2GG\ 2G	8.b\L 8.dd	.	8.g/	-tre	.	8.b/	-tre	.	8.dd\	-tre	.
.	16a\Jk 16cc	.	16g/	ré-	.	16a/	ré-	.	16cc\	ré-	.
.	4g/ 4b	.	4g/	-si-	.	4g/	-si-	.	4b\	-si-	.
4GG;\ 4D 4F#	4d;/ 4a	p	4d;/	-de	.	4f#;/	-de	.	4a;/	-de	.
4r	4r	.	4r	.	.	4r	.	.	4r	.	.
=15	=15	=15	=15	=15	=15	=15	=15	=15	=15	=15	=15
!	!	!	!	!	!LO:DY:a	!	!	!	!	!	!
2GG\ 2G	4g\ 4b	.	4g/	Et	<	4g/	Et	.	4b/	Et	.
!	!	!	!	!	!	!	!	!LO:DY:a	!	!	!LO:DY:a
.	8g\L 8b	.	8g/	tend	.	8g/	tend	<	8b/	tend	<
.	8d\J 8a	.	8d/	la	.	8f#/	la	.	8a/	la	.
2GG\ 2G	8g\L 8b	.	4g/	main	.	(8g/L	main	.	(8b\L	main	.
.	8a\J 8cc	.	.	.	.	8a/J)	.	.	8cc\J)	.	.
.	4b\ 4dd	.	4g/	aux	[[	4b/	aux	[	4dd\	aux	[
=16	=16	=16	=16	=16	=16	=16	=16	=16	=16	=16	=16
!	!	!	!	!	!LO:DY:a	!	!	!LO:DY:a	!	!	!LO:DY:a
4DD/ 4D	8.f#/L 8.a	>	8.d/	mal-	>	8.f#/	mal-	>	8.a/	mal-	>
.	16e/Jk 16g	.	16d/	-heu-	.	16f#/	-heu-	.	16g/	-heu-	.
2DD/ 2D	2f#/ 2a	]	2d/	-reux	]	2f#/	-reux	]	2a/	-reux	]
4r	4r	.	4r	.	.	4r	.	.	4r	.	.
!LO:LB:g=original	!LO:LB:g=original	!	!LO:LB:g=original	!	!	!LO:LB:g=original	!	!	!LO:LB:g=original	!	!
=17	=17	=17	=17	=17	=17	=17	=17	=17	=17	=17	=17
!	!	!	!	!	!	!	!	!LO:DY:a	!	!	!LO:DY:a
2GG/ 2G	4g/ 4b	.	4G/	ou-	<	4g\	ou-	<	4b\	ou-	<
!	!	!LO:HP:t=cres	!	!	!	!	!	!	!	!	!
.	8g/L 8b	<	8B/	-vrez	.	8g\	-vrez	.	8b\	-vrez	.
.	8f#/J 8a	.	8d/	vous	.	8f#\	vous	.	8a\	vous	.
4GG/ 4G	8g\L 8b	.	8g/	a	.	8g\	a	.	8b\	a	.
.	8a\J 8cc	.	8d/	ma	.	8a/	ma	[	8cc\	ma	[
8GG/L	4b\ 4dd	.	4B/	voix	[[	4b^\	voix	.	4dd^\	voix	.
8EE/J	.	.	.	.	.	.	.	.	.	.	.
=18	=18	=18	=18	=18	=18	=18	=18	=18	=18	=18	=18
4DD/ 4D	8.f#/L 8.a	>	4d/	ti-	.	(8.f#/L	ti-	.	(8.a/L	ti-	.
.	16e/Jk 16g	.	.	.	.	16e/Jk)	.	.	16g/Jk)	.	.
2DD;</ 2D	2f#;</ 2a	]	4d/	-mi-	.	4f#/	-mi-	.	4a/	-mi-	.
.	.	.	4d;/	-de	.	4f#;/	-de	.	4a;/	-de	.
4r	4r	.	4r	.	.	4r	.	.	4r	.	.
=19||	=19||	=19||	=19||	=19||	=19||	=19||	=19||	=19||	=19||	=19||	=19||
!	!	!	!	!	!	!	!	!	!LO:TX:a:t=REFRAIN.	!	!
2.GG\ 2.G	(4g\ 4b	p	4g/	O	.	4g/	O	.	4b\	O	.
.	4a\ 4cc	.	4g/	mon	.	4a/	mon	.	4cc\	mon	.
.	8b\L 8dd	.	8g/	doux	.	8b/	doux	.	8dd\	doux	.
.	8a\J 8cc	.	8g/	sau-	.	8a/	sau-	.	8cc\	sau-	.
4GG;\ 4G	4g;\) 4b	.	4g;/	-veur	.	4g;/	-veur	.	4b;\	-veur	.
=20	=20	=20	=20	=20	=20	=20	=20	=20	=20	=20	=20
*	*^	*	*	*	*	*	*	*	*	*	*
2GG\ 2G	4g/ 4b	2d\	.	4g/	o	.	4g/	o	.	4b\	o	.
.	4a/ 4cc	.	.	4d/	mon	.	4a/	mon	.	4cc\	mon	.
!	!	!	!	!	!	!	!	!	!	!LO:TX:a:t=rall.	!	!
4GG\ 4G	8b/ 8dd	2ryy	.	8B/	bien	.	8b/	bien	.	8dd\	bien	.
.	8a/ 8cc	.	.	8d/	su-	.	8a/	su-	.	8cc\	su-	.
4GG\ 4G	4d;</ 4g 4b	.	.	8g/	-prè-	.	8g/	-prè-	.	8b\	-prè-	.
.	.	.	.	8g;/	-me	.	8g;/	-me	.	8b;\	-me	.
!LO:PB:g=original	!LO:PB:g=original	!	!	!LO:PB:g=original	!	!	!LO:PB:g=original	!	!	!LO:PB:g=original	!	!
=21	=21	=21	=21	=21	=21	=21	=21	=21	=21	=21	=21	=21
!	!	!	!	!	!	!LO:DY:a	!	!	!LO:DY:a	!	!	!LO:DY:a
4BB\ 4G	4dd/	2g\	<	4B/	à	<	4g/	à	<	4dd\	à	<
4C\ 4G	4ee/	.	.	4c/	vous	.	4g/	vous	.	4ee\	vous	.
(4DD/ 4D	4dd\	4b\	.	4d/	mon	.	4b/	mon	.	4dd\	mon	.
8E\L	4cc\	4a\	.	4f#/	coeur	[	4a/	coeur	[	4cc\	coeur	[
8F#\J)	.	.	.	.	.	.	.	.	.	.	.	.
*	*v	*v	*	*	*	*	*	*	*	*	*	*
=22	=22	=22	=22	=22	=22	=22	=22	=22	=22	=22	=22
!	!	!	!	!	!LO:DY:a	!	!	!LO:DY:a	!	!	!LO:DY:a
4GG\ 4G	4g/ 4b	[ >	4g/	tout	>	4g/	tout	>	4b\	tout	>
8C/L	8a/L 8cc	.	8c/L	mon	.	8a/L	mon	.	8cc\L	mon	.
8C#X/J	8g/J 8b	]	8c#X/J	.	]	8g/J	.	]	8b\J	.	]
(8D/L	2f#/ 2a	.	2d/	coeur	.	2f#/	coeur	.	2a/	coeur	.
8Cn/	.	.	.	.	.	.	.	.	.	.	.
8BB/	.	.	.	.	.	.	.	.	.	.	.
8AA/J)	.	.	.	.	.	.	.	.	.	.	.
=23	=23	=23	=23	=23	=23	=23	=23	=23	=23	=23	=23
!	!	!	!	!	!LO:DY:a	!	!	!LO:DY:a	!	!	!LO:DY:a
4GG\ 4G	4g/ 4b	.	4g/	mes	f	4g/	mes	f	4b\	mes	f
4C\ 4G	4e/ 4g 4cc	.	4e/	chants	.	4g/	chants	.	4cc\	chants	.
4BB\ 4G	4d/ 4g 4dd	.	4d/	tout	.	4g/	tout	.	4dd\	tout	.
8GG\L 8G	(>8B/L 8g	<	(>8B/L	moi	.	(>8d/L	moi	.	(>8g/L	moi	.
8E\J	8c/J 8a	[[	8c/J)	.	.	8e/J)	.	.	8a/J)	.	.
=24	=24	=24	=24	=24	=24	=24	=24	=24	=24	=24	=24
2DD/ 2D	4d/ 4b	>	(4d/	mê-	.	(4d/	mê-	.	(4b/	mê-	.
.	4c/ 4a	.	4c/)	.	.	4f#/)	.	.	4a/)	.	.
!	!	!	!	!	!LO:DY:a	!	!	!LO:DY:a	!	!	!LO:DY:a
2GG/ 2G	2B/) 2g	]	2B/	-me	p	2g/	-me	p	2g/	-me	p
!LO:LB:g=original	!LO:LB:g=original	!	!LO:LB:g=original	!	!	!LO:LB:g=original	!	!	!LO:LB:g=original	!	!
=25||	=25||	=25||	=25||	=25||	=25||	=25||	=25||	=25||	=25||	=25||	=25||
!	!	!	!	!	!LO:DY:a	!	!	!LO:DY:a	!LO:TX:a:t=2e. STROPHE.	!	!LO:DY:a
2GG\ 2G	4g\ 4b 4ee	f	4g/	Il	f	4b\	Il	f	4dd\	Il	f
.	4g\ 4cc 4ee	.	4g/	vient	.	4cc\	vient	.	4ee\	vient	.
2GG\ 2G	8g\L 8b 8dd	.	8g/	à	.	8b\	à	.	8dd\	à	.
.	8a\ 8cc	.	8g/	la	.	8a/	la	.	8cc\	la	.
.	8g\ 8b	.	4g/	voix	.	(8g/L	voix	.	(8b\L	voix	.
.	8a\J 8cc	.	.	.	.	8a/J)	.	.	8cc\J)	.	.
=26	=26	=26	=26	=26	=26	=26	=26	=26	=26	=26	=26
*^	*	*	*	*	*	*	*	*	*	*	*
8.G/L	[>4GG\	8.b\L 8.dd	.	8.g/	du	.	8.b\	du	.	8.dd\	du	.
16F#/Jk	.	16a\Jk 16cc	.	16g/	pé-	.	16a/	pé-	.	16cc\	pé-	.
4G/	4GG\]	4g/ 4b	.	(4g/	-cheur	.	(4g/	-cheur	.	(4b\	-cheur	.
4D;\ 4F#	4GG\	4d;</ 4a	.	4d;/)	.	.	4f#;/)	.	.	4a;/)	.	.
4r	4ryy	4r	.	4r	.	.	4r	.	.	4r	.	.
*v	*v	*	*	*	*	*	*	*	*	*	*	*
=27	=27	=27	=27	=27	=27	=27	=27	=27	=27	=27	=27
!	!	!	!	!	!LO:DY:a	!	!	!LO:DY:a	!	!	!LO:DY:a
2GG\ 2G	(4g\ 4b 4dd	p	4g/	Il	<	4b/	Il	<	4dd\	Il	<
.	4g\ 4cc 4ee	.	4c/	vient	.	4g/	vient	.	4ee\	vient	.
2GG\ 2G	8g\L 8b 8dd	.	8B/L	l'ai-	[	(8g/L	l'ai-	[	(8dd\L	l'ai-	[
.	8cc\ 8ee	.	8d/J	.	.	8a/J)	.	.	8cc\J)	.	.
.	8g\ 8dd	.	8g/	-der	.	8g/	-der	.	8b\	-der	.
.	8a\J) 8cc	.	8d/	en	.	8a/	en	.	8cc\	en	.
=28	=28	=28	=28	=28	=28	=28	=28	=28	=28	=28	=28
!	!	!	!	!	!	!	!	!	!	!	!LO:DY:a
2GG\ 2G	(8.b\L 8.dd	.	8.g/	sa	.	8.b/	sa	.	8.dd\	sa	>
.	16a\Jk 16cc	.	16g/	fai-	.	16a/	fai-	.	16cc\	fai-	.
.	4g\) 4b	.	4g/	-bles-	.	4g/	-bles-	.	4b\	-bles-	]
4GG;\ 4D 4F#	4d;/ 4a	.	4d;/	-se	.	4f#;/	-se	.	4a;/	-se	.
4r	4r	.	4r	.	.	4r	.	.	4r	.	.
!LO:LB:g=original	!LO:LB:g=original	!	!LO:LB:g=original	!	!	!LO:LB:g=original	!	!	!LO:LB:g=original	!	!
=29	=29	=29	=29	=29	=29	=29	=29	=29	=29	=29	=29
2GG/ 2G	4g\ 4b	.	4g/	Il	.	4g/	Il	.	4b\	Il	.
.	8g\L 8b	.	(8g/L	vient	.	(8g/L	vient	.	(8b/L	vient	.
.	8d\J 8a	.	8d/J)	.	.	8f#/J)	.	.	8a/J)	.	.
2GG/ 2G	8g\L 8b	.	8g/	in-	.	8g/	in-	.	8b\	in-	.
.	8a\J 8cc	.	8g/	-on-	.	8a/	-on-	.	8cc\	-on-	.
.	4b\ 4dd	.	4g^>/	-der	.	4b^>/	-der	.	4dd^\	-der	.
=30	=30	=30	=30	=30	=30	=30	=30	=30	=30	=30	=30
!	!	!	!	!	!LO:DY:a	!	!	!LO:DY:a	!	!	!LO:DY:a
4DD/ 4D	8.f#/L 8.a	>	8.d/	no-	p	8.f#/	no-	p	8.a/	no-	p
.	16e/Jk 16g	.	16d/	-tre	.	16e/	-tre	.	16g/	-tre	.
2DD/ 2D	2f#/ 2a	]	2d/	coeur	.	2f#/	coeur	.	2a^>/	coeur	.
4r	4r	.	4r	.	.	4r	.	.	4r	.	.
=31	=31	=31	=31	=31	=31	=31	=31	=31	=31	=31	=31
!	!	!	!	!	!LO:DY:a	!	!	!LO:DY:a	!	!	!LO:DY:a
2GG/ 2G	4g\ 4b	.	4G/	de	<	4g/	de	<	4b\	de	<
.	8g\L 8b	.	(8B/L	paix	.	(8g/L	paix	.	(8b/L	paix	.
.	8d\J 8a	.	8d/J)	.	.	8f#/J)	.	.	8a/J)	.	.
2GG/ 2G	8g\L 8b	.	(8g/L	d'a-	[	(8g/L	d'a-	[	(8b\L	d'a-	.
.	8a\J 8cc	.	8d/J)	.	.	8a/J)	.	.	8cc\J)	.	[
.	4b\ 4dd	.	4B/	-mour	.	4b^>/	-mour	.	4dd^\	-mour	.
=32	=32	=32	=32	=32	=32	=32	=32	=32	=32	=32	=32
4DD/ 4D	8.f#/L 8.a	>	8.d/	de	.	8.f#/	de	.	8.a/	de	.
.	16e/Jk 16g	.	16d/	ten-	.	16e/	ten-	.	16g/	ten-	.
2DD/ 2D	2f#/ 2a	]	4d/	-dres-	.	4f#/	-dres-	.	4a/	-dres-	.
.	.	.	4d;/	-se	.	4f#;/	-se	.	4a;/	-se	.
4r	4r	.	4r	.	.	4r	.	.	4r	.	.
!LO:LB:g=original	!LO:LB:g=original	!	!LO:LB:g=original	!	!	!LO:LB:g=original	!	!	!LO:LB:g=original	!	!
=33	=33	=33	=33	=33	=33	=33	=33	=33	=33	=33	=33
!	!	!	!	!	!LO:DY:a	!	!	!LO:DY:a	!LO:TX:a:t=REFRAIN.	!	!LO:DY:a
2.GG\ 2.G	4g\ 4b	p	4g/	O	p	4g/	O	p	4b\	O	p
.	4a\ 4cc	.	4g/	mo	.	4a/	mon	.	4cc\	mon	.
.	8b\L 8dd	.	8g/	doux	.	8b/	doux	.	8dd\	doux	.
.	8a\J 8cc	.	8g/	sau-	.	8a/	sau-	.	8cc\	sau-	.
4GG;\ 4G	4g;/ 4b	.	4g;/	-veur	.	4g;/	-veur	.	4b;\	-veur	.
=34	=34	=34	=34	=34	=34	=34	=34	=34	=34	=34	=34
*	*^	*	*	*	*	*	*	*	*	*	*
2GG\ 2G	4g/ 4b	2d\	.	4g/	O	.	4g/	O	.	4b\	O	.
.	4a/ 4cc	.	.	4d/	mon	.	4a/	mon	.	4cc\	mon	.
4GG\ 4G	8b/L 8dd	2ryy	.	8B/	bien	.	8b/	bien	.	8dd\	bien	.
!	!	!	!	!	!	!	!	!	!	!LO:TX:a:t=rall.	!	!
.	8a/J 8cc	.	.	8d/	su-	.	8a/	su-	.	8cc\	su-	.
4GG;\ 4G	4d;/ 4g 4b	.	.	8g/	-pre-	.	8g/	-pre-	.	8b\	-pre-	.
.	.	.	.	8g;/	-me	.	8g;/	-me	.	8b;\	-me	.
=35	=35	=35	=35	=35	=35	=35	=35	=35	=35	=35	=35	=35
!	!	!	!	!	!	!LO:DY:a	!	!	!LO:DY:a	!	!	!LO:DY:a
4BB\ 4G	4dd/	2g\	<	4B/	A	<	4g/	A	<	4dd\	A	<
4C\ 4G	4ee/	.	.	4c/	vous	.	4g/	vous	.	4ee\	vous	.
4DD/ 4D	4dd/	4b\	[ >	4d/	mon	.	4b/	mon	.	4dd\	mon	.
8E\L	4cc/	4a\	]	4f#/	coeur	[[	4a/	coeur	[[	4cc\	coeur	[[
!	!LO:LB:g=original	!LO:LB:g=original	!	!LO:LB:g=original	!	!	!LO:LB:g=original	!	!	!LO:LB:g=original	!	!
8F#\J	.	.	.	.	.	.	.	.	.	.	.	.
!LO:LB:g=original	!	!	!	!	!	!	!	!	!	!	!	!
*	*v	*v	*	*	*	*	*	*	*	*	*	*
=36	=36	=36	=36	=36	=36	=36	=36	=36	=36	=36	=36
!	!	!	!	!	!LO:DY:a	!	!	!LO:DY:a	!	!	!LO:DY:a
4GG/ 4G	4g/ 4b	.	4g/	tout	>	4g/	tout	>	4b\	tout	>
8C/L	8a/L 8cc	>	(8c/L	mon	.	(8a/L	mon	.	(8cc\L	mon	.
8C#X/J	8g/J 8b	.	8c#X/J)	.	]	8g/J)	.	]	8b\J)	.	]
(>8D/L	2f#/ 2a	]	2d/	coeur	.	2f#/	coeur	.	2a\	coeur	.
8Cn/	.	.	.	.	.	.	.	.	.	.	.
8BB/	.	.	.	.	.	.	.	.	.	.	.
8AA/J)	.	.	.	.	.	.	.	.	.	.	.
=37	=37	=37	=37	=37	=37	=37	=37	=37	=37	=37	=37
!	!	!	!	!	!LO:DY:a	!	!	!LO:DY:a	!	!	!LO:DY:a
4GG\ 4G	4g/ 4b	f	4e/	Mes	f	4g/	Mes	f	4b\	Mes	f
4C\ 4G	4e/ 4g 4cc	.	4d/	chants	.	4g/	chants	.	4cc\	chants	.
4BB\ 4G	4d/ 4g 4dd	.	4c/	tout	.	4g/	tout	.	4dd\	tout	.
8GG\L 8G	8B/L 8g	.	(8B/L	moi	.	(8d/L	moi	.	(8g/L	moi	.
8E-X\J	8c/J 8a	.	8c/J)	.	.	8e-X/J)	.	.	8a/J)	.	.
=38	=38	=38	=38	=38	=38	=38	=38	=38	=38	=38	=38
2DD/ 2D	4d/ 4b	.	(4d/	mê-	.	(4d/	mê-	.	(4b/	mê-	.
.	4c/ 4a	.	4c/)	.	.	4f#/)	.	.	4a/)	.	.
!	!	!	!	!	!	!	!	!	!	!	!LO:DY:a
2GG/ 2G	2B/ 2g	p	2B/	-me	.	2g/	-me	.	2g/	-me	p
!LO:LB:g=original	!LO:LB:g=original	!	!LO:LB:g=original	!	!	!LO:LB:g=original	!	!	!LO:LB:g=original	!	!
=39||	=39||	=39||	=39||	=39||	=39||	=39||	=39||	=39||	=39||	=39||	=39||
!	!	!LO:HP:t=cres.	!	!	!	!	!	!	!LO:TX:a:t=3e. STROPHE.	!	!
2GG/ 2G	(4g\ 4b 4dd	<	4g/	Loin	.	4b\	Loin	.	4dd\	Loin	.
.	4g\ 4cc 4ee	.	4g/	de	.	4cc\	de	.	4ee\	de	.
2GG/ 2G	8g\L 8b 8dd	.	8g/	moi	.	8b\	moi	.	8dd\	moi	.
.	8a\ 8cc	.	8g/	les	.	8a/	les	.	8cc\	les	.
.	8g\ 8b	.	4g/	soins	.	(8g/L	soins	.	(8b\L	soins	.
.	8a\J) 8cc	.	.	.	.	8a/J)	.	.	8cc\J)	.	.
=40	=40	=40	=40	=40	=40	=40	=40	=40	=40	=40	=40
2GG/ 2G	(8.b\L 8.dd	.	(8.g/L	su-	.	(8.b/L	su-	.	(8.dd\L	su-	.
.	16a\Jk 16cc	.	16g/Jk)	.	.	16a/Jk)	.	.	16cc\Jk)	.	.
.	4g/ 4b	.	4g/	-per-	.	4g/	-per-	.	4b\	-per-	.
4GG;</ 4D 4F#	4d;</) 4a	.	4d;/	-flus	.	4f#;/	-flus	.	4a;\	-flus	.
4r	4r	.	4r	.	.	4r	.	.	4r	.	.
=41	=41	=41	=41	=41	=41	=41	=41	=41	=41	=41	=41
!	!	!LO:HP:t=cres.	!	!	!	!	!	!	!	!	!LO:DY:a
2GG/ 2G	(4g\ 4b 4dd	<	4g/	Les	.	4b/	Les	.	4dd\	Les	<
.	4g\ 4cc 4ee	.	4c/	biens	.	4g/	biens	.	4ee\	biens	.
2GG/ 2G	8g\L 8b 8dd	.	8B/	les	.	8g/	les	.	8dd\	les	.
!	!	!	!	!	!	!	!	!	!	!	!LO:DY:a
.	8a\ 8cc	.	8d/	plai-	.	8a/	plai-	.	8cc\	plai-	[ >
.	8g\ 8b	.	4g/	-sirs	.	(8g/L	-sisrs	.	(8b\L	-sirs	.
.	8a\J) 8cc	.	.	.	.	8a/J)	.	.	8cc\J)	.	]]
=42	=42	=42	=42	=42	=42	=42	=42	=42	=42	=42	=42
2GG/ 2G	(8.b\L 8.dd	.	8.g/	de	.	8.b/	de	.	8.dd\	de	.
.	16a\Jk 16cc	.	16g/	la	.	16a/	la	.	16cc\	la	.
.	4g/ 4b	.	4g/	ter-	.	4g/	ter-	.	4b\	ter-	.
4GG;</ 4D 4F#	4d/) 4a	p	4d/	-re	.	4f#/	-re	.	4a\	-re	.
4r	4r	.	4r	.	.	4r	.	.	4r	.	.
=43	=43	=43	=43	=43	=43	=43	=43	=43	=43	=43	=43
2GG^/ 2G	4g/ 4b	.	4g/	Je	.	4b/	Je	.	4b\	Je	.
!	!LO:TX:b:t=marcato.	!	!	!	!	!	!	!	!	!	!
.	8g/L 8b	.	(8g/L	veux	.	(8b/L	veux	.	(8b/L	veux	.
.	8d/J 8a	.	8d/J)	.	.	8a/J)	.	.	8a/J)	.	.
2GG/ 2G	8g\L 8b	.	4g/	je	.	(8g/L	je	.	(8b\L	je	.
.	8a\J 8cc	.	.	.	.	8a/J)	.	.	8cc\J)	.	.
.	4b\ 4dd	.	4g^/	veux	.	4b^/	veux	.	4dd^\	veux	.
=44	=44	=44	=44	=44	=44	=44	=44	=44	=44	=44	=44
4DD/ 4D	8.f#^/L 8.a	.	8.d/	o	.	8.f#/	o	.	8.a/	o	.
.	16e/Jk 16g	.	16d/	Jé-	.	16e/	Jé-	.	16g/	Jé-	.
2DD/ 2D	2f#^/ 2a	.	2d/	-sus	.	2f#/	-sus	.	2a/	-sus	.
4r	4r	.	4r	.	.	4r	.	.	4r	.	.
=45	=45	=45	=45	=45	=45	=45	=45	=45	=45	=45	=45
!	!	!LO:HP:t=cres.	!	!	!LO:DY:a	!	!	!LO:DY:a	!	!	!
2GG/ 2G	4g/ 4b	<	4G/	Vous	p	4g/	Vous	p	4b\	Vous	.
!	!	!	!	!	!	!	!	!LO:DY:a	!	!	!LO:DY:a
.	8g/L 8b	.	8B/	con-	.	8g/	con-	<	8b\	con-	<
.	8f#/J 8a	.	8d/	-sa-	.	8f#/	-sa-	.	8a\	-sa-	.
4GG/ 4G	8g/L 8b	.	8g/	-crer	.	8g/	-crer	.	8b\	-crer	.
.	8a/J 8cc	.	8d/	ma	.	8a/	ma	.	8cc\	ma	[
8GG/L	4b\ 4dd	.	4B/	vi-	.	4b^/	vi-	[	4dd^\	vi-	.
8EE/J	.	.	.	.	.	.	.	.	.	.	.
=46	=46	=46	=46	=46	=46	=46	=46	=46	=46	=46	=46
4DD/ 4D	8.f#^/L 8.a	.	8.d/	-e	.	8.f#/	-e	.	8.a/	-e	.
.	16e/Jk 16g	.	16d/	en-	.	16e/	en-	.	16g/	en-	.
2DD/ 2D	2f#^/ 2a	.	4d/	-tiè-	.	4f#/	-tiè-	.	4a/	-tiè-	.
.	.	.	4d;/	-re	.	4f#;/	-re	.	4a;/	-re	.
4r	4r	.	4r	.	.	4r	.	.	4r	.	.
!LO:LB:g=original	!LO:LB:g=original	!	!LO:LB:g=original	!	!	!LO:LB:g=original	!	!	!LO:LB:g=original	!	!
=47||	=47||	=47||	=47||	=47||	=47||	=47||	=47||	=47||	=47||	=47||	=47||
!	!	!	!	!	!LO:DY:a	!	!	!LO:DY:a	!LO:TX:a:t=REFRAIN.	!	!LO:DY:a
2.GG/ 2.G	4g/ 4b	p	4g/	O	p	4g/	O	p	4b\	O	p
.	4a/ 4cc	.	4g/	mon	.	4a/	mon	.	4cc\	mon	.
.	8b\L 8dd	.	8g/	doux	.	8b/	doux	.	8dd\	doux	.
.	8a\J 8cc	.	8g/	sau-	.	8a/	sau-	.	8cc\	sau-	.
4GG;/ 4G	4g;\ 4b	.	4g;/	-veur	.	4g;/	-veur	.	4b;\	-veur	.
=48	=48	=48	=48	=48	=48	=48	=48	=48	=48	=48	=48
*	*^	*	*	*	*	*	*	*	*	*	*
2GG/ 2G	4g/ 4b	2d\	.	4g/	O	.	4g/	O	.	4b\	O	.
.	4a/ 4cc	.	.	4d/	mon	.	4a/	mon	.	4cc\	mon	.
4GG/ 4G	8b/L 8dd	2ryy	.	8B/	bien	.	8b/	bien	.	8dd\	bien	.
!	!	!	!	!LO:TX:a:t=rall.	!	!	!	!	!	!LO:TX:a:t=rall.	!	!
.	8a/J 8cc	.	.	8d/	su-	.	8a/	su-	.	8cc\	su-	.
4GG;/ 4G	4d;/ 4g 4b	.	.	8g/	-pre-	.	8g/	-pre-	.	8b\	-pre-	.
.	.	.	.	8g;/	-me	.	8g;/	-me	.	8b;\	-me	.
=49	=49	=49	=49	=49	=49	=49	=49	=49	=49	=49	=49	=49
!	!	!	!	!	!	!LO:DY:a	!	!	!LO:DY:a	!	!	!LO:DY:a
4BB\ 4G	4dd/	2g\	<	4B/	A	<	4g/	A	<	4dd\	A	<
4C\ 4G	4ee/	.	.	4c/	vous	.	4g/	vous	.	4ee\	vous	.
4DD/ 4D	4dd/	4b\	[	4d/	mon	.	4b/	mon	.	4dd\	mon	.
8E\L	4cc/	4a\	.	4f#/	coeur	[[	4a/	coeur	[[	4cc\	coeur	[[
8F#\J	.	.	.	.	.	.	.	.	.	.	.	.
*	*v	*v	*	*	*	*	*	*	*	*	*	*
=50	=50	=50	=50	=50	=50	=50	=50	=50	=50	=50	=50
4G\	4g/ 4b	.	4g/	tout	.	4g/	tout	.	4b\	tout	.
8C/L	8a/L 8cc	.	(8c/L	mon	.	(8a/L	mon	.	(8cc\L	mon	.
8C#X/J	8g/J 8b	.	8c#X/J)	.	.	8g/J)	.	.	8b\J)	.	.
8D/L	2f#/ 2a	.	2d/	coeur	.	2f#/	coeur	.	2a/	coeur	.
8Cn/	.	.	.	.	.	.	.	.	.	.	.
8BB/	.	.	.	.	.	.	.	.	.	.	.
8AA/J	.	.	.	.	.	.	.	.	.	.	.
=51	=51	=51	=51	=51	=51	=51	=51	=51	=51	=51	=51
4GG/ 4G	4g/ 4b	.	4g/	Mes	.	4g/	Mes	.	4b\	Mes	.
!	!LO:TX:b:t=piu lento.	!	!	!	!	!	!	!	!	!	!
4C\ 4G	4e/ 4g 4cc	f	4e/	chants	.	4g/	chants	.	4cc\	chants	.
4BB\ 4G	4d/ 4g 4dd	.	4d/	tout	.	4g/	tout	.	4dd\	tout	.
8GG\L 8G	(8B/L 8g	.	(8B/L	moi	.	(8d/L	moi	.	(8g/L	moi	.
8E\J	8c/J 8a	.	8c/J)	.	.	8e/J)	.	.	8a/J)	.	.
=52	=52	=52	=52	=52	=52	=52	=52	=52	=52	=52	=52
2DD/ 2D	4d/ 4b	>	(4d/	mê-	.	(4d/	mê-	.	(4b/	mê-	.
.	4c/) 4a	.	4c/)	.	.	4f#/)	.	.	4a/)	.	.
!	!	!	!	!	!	!	!	!LO:DY:a	!	!	!LO:DY:a
2GG/ 2G	2B/ 2g	]	2B/	-me	.	2g/	-me	p	2g/	-me	p
==	==	==	==	==	==	==	==	==	==	==	==
*-	*-	*-	*-	*-	*-	*-	*-	*-	*-	*-	*-
!!!RDF**kern: > = above
!!!RDF**kern: < = below
!!!system-decoration: [(s1,s2,s3)][(s4,s5)]
!!!ENC: Andrzej Gręziak
!!!END: 2022-08-10
!!!ENC: Julita Ruszuk
!!!END: 2022-09-12
!!!YEC: Copyright 2022 Narodowy Instytut Fryderyka Chopina (https://polishscores.org)
!!!YEM: License CC-BY-4.0 (https://creativecommons.org/licenses/by/4.0)
